X:1
T:Title
%%score ( 1 2 ) { 3 | 4 }
L:1/8
Q:1/4=150
M:4/4
K:F
V:1 treble nm="Grand Piano, Unnamed-000"
V:2 treble 
V:3 treble nm="Choir Pad, Hamburg, LM"
V:4 bass 
V:1
 [CF]4 [CF]2 [EG]2 | [FA]4 G2 [^FA]2 | [GB]4 [FA]2 [EG]2 | [FA]8 | [FA]4 [FA]2 [FA]2 | %5
w: By~Lowell~Mason,~1824 * *|||||
 [FB]4 [FA]2 [EG]2 | F4 E2 F2 | [EG]8 | [CF]4 [CF]2 [EG]2 | [FA]4 G2 [^FA]2 | [GB]4 [FA]2 [EG]2 | %11
w: ||||||
 [FA]8 | [FA]4 [FA]2 [FA]2 | [EG]4 F4 | [FG]4 A2 G2 | F8- | F4 z4 |] %17
w: ||||||
V:2
 x8 | x8 | x8 | x8 | x8 | x8 | z4 C4 | x8 | x8 | x8 | x8 | x8 | x8 | x8 | z4 E4 | x8 | x8 |] %17
V:3
 A,4 A,2 C2 | C4 D2 C2 | D4 C4 | F,8 | C4 C2 C2 | D4[K:treble] C4 | C4 B,2 A,2 | C8 | A,4 A,2 C2 | %9
 C4 D2 C2 | D4 C4 | C8 | C4 C2 C2 | C2[K:bass] B,2 A,4 | D4 C2 B,2 | A,8- | A,4 z4 |] %17
V:4
 F,4 F,2 C,2 | F,4 B,2 A,2 | G,4 C,4 | z8 | F,4 F,2 F,2 | F,4 F,2 B,2 | A,4 G,2 F,2 | C,8 | %8
 F,4 F,2 C,2 | F,4 B,2 A,2 | G,4 C,4 | F,8 | F,4 F,2 F,2 | C,4 D,4 | B,,4 C,4 | F,8- | F,4 z4 |] %17

